austria/municipalities/70802.svg

<?xml version="1.0" encoding="UTF-8"?>
<!DOCTYPE svg PUBLIC "-//W3C//DTD SVG 1.1//EN" "http://www.w3.org/Graphics/SVG/1.1/DTD/svg11.dtd">
<svg xmlns="http://www.w3.org/2000/svg" version="1.1" width="166px" height="192px" style="shape-rendering:geometricPrecision; text-rendering:geometricPrecision; image-rendering:optimizeQuality; fill-rule:evenodd; clip-rule:evenodd" xmlns:xlink="http://www.w3.org/1999/xlink">
<g><path style="opacity:1" fill="#090909" d="M -0.5,-0.5 C 54.8333,-0.5 110.167,-0.5 165.5,-0.5C 165.5,39.1667 165.5,78.8333 165.5,118.5C 157.612,158.721 133.612,183.054 93.5,191.5C 86.1667,191.5 78.8333,191.5 71.5,191.5C 30.4674,182.802 6.46741,157.802 -0.5,116.5C -0.5,77.5 -0.5,38.5 -0.5,-0.5 Z"/></g>
<g><path style="opacity:1" fill="#fefefe" d="M 70.5,64.5 C 71.8062,65.4674 72.4729,66.8007 72.5,68.5C 64.5902,70.2042 57.7569,73.8709 52,79.5C 48.5987,84.8098 47.7653,90.4765 49.5,96.5C 51.6547,96.628 53.6547,96.128 55.5,95C 58.656,86.6809 64.656,81.8476 73.5,80.5C 74.1972,89.6835 75.8638,98.6835 78.5,107.5C 75.8907,111.284 73.0574,114.951 70,118.5C 68.1057,124.936 69.1057,130.936 73,136.5C 73.6667,137.833 73.6667,139.167 73,140.5C 64.9814,142.758 58.1481,146.924 52.5,153C 40.8333,153.667 29.1667,153.667 17.5,153C 9.64313,141.767 5.14313,129.267 4,115.5C 3.50001,78.1682 3.33335,40.8348 3.5,3.5C 56.1667,3.5 108.833,3.5 161.5,3.5C 161.667,41.8348 161.5,80.1681 161,118.5C 159.501,130.832 155.334,142.166 148.5,152.5C 130.843,153.666 113.176,153.833 95.5,153C 101.959,149.509 108.792,147.009 116,145.5C 116.638,144.391 117.138,143.225 117.5,142C 116.013,139.179 113.846,137.013 111,135.5C 110.333,133.167 110.333,130.833 111,128.5C 113.397,125.864 115.397,122.864 117,119.5C 117.667,120.833 118.333,120.833 119,119.5C 120.62,114.36 122.12,109.193 123.5,104C 123.369,101.747 122.869,99.5806 122,97.5C 117.652,89.4683 113.319,81.4683 109,73.5C 110.04,69.6447 109.54,65.9781 107.5,62.5C 110.122,61.6268 110.122,59.7935 107.5,57C 108.308,56.6924 108.975,56.1924 109.5,55.5C 108.543,53.0824 107.209,50.9157 105.5,49C 106.535,47.4931 106.368,45.9931 105,44.5C 103.667,43.1667 102.333,41.8333 101,40.5C 100.316,39.2161 100.483,38.0495 101.5,37C 99.4249,32.921 96.5916,29.421 93,26.5C 92.6466,23.4615 91.4799,20.7948 89.5,18.5C 88.5,19.1667 87.5,19.8333 86.5,20.5C 85.1255,19.2887 83.6255,18.2887 82,17.5C 79.9803,18.0319 79.147,19.3652 79.5,21.5C 76.3926,21.3512 73.3926,21.8512 70.5,23C 65.5686,26.6318 60.2353,29.4652 54.5,31.5C 55.711,33.4219 57.0443,35.2552 58.5,37C 54.6115,38.1404 51.2781,37.307 48.5,34.5C 47.246,36.2592 47.5794,37.7592 49.5,39C 53.0449,39.7171 56.5449,39.5504 60,38.5C 60.5,38.6667 61,38.8333 61.5,39C 60.0745,40.7141 60.4078,42.0475 62.5,43C 67.8333,44 73.1667,45 78.5,46C 76.5987,48.9696 75.0987,52.1363 74,55.5C 65.7403,51.3725 57.5736,51.5391 49.5,56C 45.273,59.3109 42.773,63.4776 42,68.5C 45.183,71.0836 48.0163,70.5836 50.5,67C 54.5386,65.8789 58.3719,64.3789 62,62.5C 64.8224,63.2755 67.6557,63.9421 70.5,64.5 Z"/></g>
<g><path style="opacity:1" fill="#928f8c" d="M 72.5,68.5 C 72.4729,66.8007 71.8062,65.4674 70.5,64.5C 72.1644,63.0512 72.9977,61.0512 73,58.5C 73.8075,62.0267 73.6408,65.3601 72.5,68.5 Z"/></g>
<g><path style="opacity:1" fill="#6f6c6a" d="M 79.5,78.5 C 84.4106,78.8357 84.0772,79.5024 78.5,80.5C 77.8333,80.3333 77.1667,80.1667 76.5,80C 77.7375,79.7679 78.7375,79.2679 79.5,78.5 Z"/></g>
<g><path style="opacity:1" fill="#fdfdfd" d="M -0.5,116.5 C 6.46741,157.802 30.4674,182.802 71.5,191.5C 47.5,191.5 23.5,191.5 -0.5,191.5C -0.5,166.5 -0.5,141.5 -0.5,116.5 Z"/></g>
<g><path style="opacity:1" fill="#fdfdfd" d="M 165.5,118.5 C 165.5,142.833 165.5,167.167 165.5,191.5C 141.5,191.5 117.5,191.5 93.5,191.5C 133.612,183.054 157.612,158.721 165.5,118.5 Z"/></g>
<g><path style="opacity:1" fill="#f6f6f6" d="M 86.5,131.5 C 89.9911,135.929 94.3245,139.429 99.5,142C 93.7523,142.873 88.419,144.873 83.5,148C 82.1279,149.242 81.1279,150.742 80.5,152.5C 76.5411,153.66 72.5411,153.827 68.5,153C 74.2876,150.023 80.121,147.189 86,144.5C 85.4308,140.145 85.5974,135.812 86.5,131.5 Z"/></g>
<g><path style="opacity:1" fill="#185b2a" d="M 19.5,156.5 C 60.9344,155.631 102.934,155.631 145.5,156.5C 124.707,181.71 98.0403,191.543 65.5,186C 46.6759,181.432 31.3426,171.599 19.5,156.5 Z"/></g>
</svg>

<svg xmlns="http://www.w3.org/2000/svg" width="166" height="192" style="shape-rendering:geometricPrecision;text-rendering:geometricPrecision;image-rendering:optimizeQuality;fill-rule:evenodd;clip-rule:evenodd"><path style="opacity:1" fill="#090909" d="M-.5-.5h166v119c-7.888 40.221-31.888 64.554-72 73h-22c-41.033-8.698-65.033-33.698-72-75V-.5z"/><path style="opacity:1" fill="#fefefe" d="M70.5 64.5c1.306.967 1.973 2.3 2 4-7.91 1.704-14.743 5.37-20.5 11-3.401 5.31-4.235 10.977-2.5 17a10.1 10.1 0 0 0 6-1.5c3.156-8.32 9.156-13.152 18-14.5a127.73 127.73 0 0 0 5 27 129.372 129.372 0 0 1-8.5 11c-1.894 6.436-.894 12.436 3 18 .667 1.333.667 2.667 0 4-8.019 2.258-14.852 6.424-20.5 12.5a306.347 306.347 0 0 1-35 0C9.643 141.767 5.143 129.267 4 115.5c-.5-37.332-.667-74.665-.5-112h158c.167 38.335 0 76.668-.5 115-1.499 12.332-5.666 23.666-12.5 34a468.796 468.796 0 0 1-53 .5 75.365 75.365 0 0 1 20.5-7.5 16.2 16.2 0 0 0 1.5-3.5c-1.487-2.821-3.654-4.987-6.5-6.5a12.494 12.494 0 0 1 0-7c2.397-2.636 4.397-5.636 6-9 .667 1.333 1.333 1.333 2 0 1.62-5.14 3.12-10.307 4.5-15.5a19.715 19.715 0 0 0-1.5-6.5c-4.348-8.032-8.681-16.032-13-24 1.04-3.855.54-7.522-1.5-11 2.622-.873 2.622-2.706 0-5.5a4.451 4.451 0 0 0 2-1.5 21.66 21.66 0 0 0-4-6.5c1.035-1.507.868-3.007-.5-4.5l-4-4c-.684-1.284-.517-2.45.5-3.5-2.075-4.079-4.908-7.579-8.5-10.5-.353-3.038-1.52-5.705-3.5-8l-3 2a19.955 19.955 0 0 0-4.5-3c-2.02.532-2.853 1.865-2.5 4a21.345 21.345 0 0 0-9 1.5 61.547 61.547 0 0 1-16 8.5 51.095 51.095 0 0 0 4 5.5c-3.889 1.14-7.222.307-10-2.5-1.254 1.76-.92 3.26 1 4.5 3.545.717 7.045.55 10.5-.5l1.5.5c-1.425 1.714-1.092 3.047 1 4l16 3a41.366 41.366 0 0 0-4.5 9.5c-8.26-4.127-16.426-3.96-24.5.5-4.227 3.31-6.727 7.478-7.5 12.5 3.183 2.584 6.016 2.084 8.5-1.5A59.593 59.593 0 0 0 62 62.5c2.822.776 5.656 1.442 8.5 2z"/><path style="opacity:1" fill="#928f8c" d="M72.5 68.5c-.027-1.7-.694-3.033-2-4 1.664-1.449 2.498-3.449 2.5-6 .808 3.527.64 6.86-.5 10z"/><path style="opacity:1" fill="#6f6c6a" d="M79.5 78.5c4.91.336 4.577 1.002-1 2l-2-.5c1.237-.232 2.237-.732 3-1.5z"/><path style="opacity:1" fill="#fdfdfd" d="M-.5 116.5c6.967 41.302 30.967 66.302 72 75h-72v-75zM165.5 118.5v73h-72c40.112-8.446 64.112-32.779 72-73z"/><path style="opacity:1" fill="#f6f6f6" d="M86.5 131.5c3.491 4.429 7.825 7.929 13 10.5a40.981 40.981 0 0 0-16 6 10.938 10.938 0 0 0-3 4.5 24.551 24.551 0 0 1-12 .5 422.03 422.03 0 0 1 17.5-8.5 38.593 38.593 0 0 1 .5-13z"/><path style="opacity:1" fill="#185b2a" d="M19.5 156.5c41.434-.869 83.434-.869 126 0-20.793 25.21-47.46 35.043-80 29.5-18.824-4.568-34.157-14.401-46-29.5z"/></svg>
